X: 3955
T: Blackest Crow, The
R: waltz
M: 3/4
K: Eminor
|:B2|"D" A4 G2|"C" E4 D>E|"G" G4 A2|B4 d2|B4 A2|G2 F2 D2|"Emi"(E6|1 E4) B2||2 E4 D2||
"G"G4 G2|G2 A2 B2|d4 d2|B4 dd|"C"e4 e2|d4 e>d|"Emi"B6|B4 A2|
"D"A4 G2|"C" E4 D>E|"G"G2 G2 A2|B4 d2|B4 A2|G2 F2 D2|"C (Emi)" E6|E4:|

